packages/crayons-core/src/components/icon/icon-assets/icons/browser.svg

<?xml version="1.0" encoding="UTF-8"?>
<svg width="14px" height="14px" viewBox="0 0 14 14" version="1.1" xmlns="http://www.w3.org/2000/svg" xmlns:xlink="http://www.w3.org/1999/xlink">
    <!-- Generator: Sketch 52.6 (67491) - http://www.bohemiancoding.com/sketch -->
    <title>icon/browser</title>
    <desc>Created with Sketch.</desc>
    <g id="Icons-✅" stroke="none" stroke-width="1" fill="none" fill-rule="evenodd">
        <g id="Icons" transform="translate(-491.000000, -2653.000000)" fill="currentColor">
            <g id="icon/browser" transform="translate(491.000000, 2653.000000)">
                <g id="browser">
                    <path d="M11.3,8.8817842e-16 C12.7911688,1.33226763e-15 14,1.20883118 14,2.7 L14,11.6 C13.9945208,12.9232072 12.9232072,13.9945208 11.6,14 L2.4,14 C1.0767928,13.9945208 0.0054791892,12.9232072 8.8817842e-16,11.6 L8.8817842e-16,2.7 C1.11022302e-15,1.20883118 1.20883118,1.11022302e-15 2.7,8.8817842e-16 L11.3,8.8817842e-16 Z M1.4,2.7 L1.4,4.83 L12.6,4.83 L12.6,2.7 C12.6,1.98202983 12.0179702,1.4 11.3,1.4 L2.7,1.4 C2.35521856,1.4 2.02455848,1.53696389 1.78076118,1.78076118 C1.53696389,2.02455848 1.4,2.35521856 1.4,2.7 Z M12.6,11.6 L12.6,6.23 L1.4,6.23 L1.4,11.6 C1.4,12.1522847 1.84771525,12.6 2.4,12.6 L11.6,12.6 C12.1522847,12.6 12.6,12.1522847 12.6,11.6 Z M3,2.11 C3.55228475,2.11 4,2.55771525 4,3.11 C4,3.66228475 3.55228475,4.11 3,4.11 C2.44771525,4.11 2,3.66228475 2,3.11 C2,2.55771525 2.44771525,2.11 3,2.11 Z M5.58,2.11 C6.13228475,2.11 6.58,2.55771525 6.58,3.11 C6.58,3.66228475 6.13228475,4.11 5.58,4.11 C5.02771525,4.11 4.58,3.66228475 4.58,3.11 C4.58,2.55771525 5.02771525,2.11 5.58,2.11 Z M8.17,2.11 C8.72228475,2.11 9.17,2.55771525 9.17,3.11 C9.17,3.66228475 8.72228475,4.11 8.17,4.11 C7.61771525,4.11 7.17,3.66228475 7.17,3.11 C7.17,2.55771525 7.61771525,2.11 8.17,2.11 Z M2.88,8.82 C2.49340068,8.82 2.18,8.50659932 2.18,8.12 C2.18,7.73340068 2.49340068,7.42 2.88,7.42 L11.12,7.42 C11.5065993,7.42 11.82,7.73340068 11.82,8.12 C11.82,8.50659932 11.5065993,8.82 11.12,8.82 L2.88,8.82 Z M2.88,11.41 C2.49340068,11.41 2.18,11.0965993 2.18,10.71 C2.18,10.3234007 2.49340068,10.01 2.88,10.01 L11.12,10.01 C11.5065993,10.01 11.82,10.3234007 11.82,10.71 C11.82,11.0965993 11.5065993,11.41 11.12,11.41 L2.88,11.41 Z" id="Combined-Shape"></path>
                </g>
            </g>
        </g>
    </g>
</svg>

<svg viewBox="0 0 14 14"><path d="M11.3 0A2.7 2.7 0 0 1 14 2.7v8.9a2.41 2.41 0 0 1-2.4 2.4H2.4A2.41 2.41 0 0 1 0 11.6V2.7A2.7 2.7 0 0 1 2.7 0h8.6zM1.4 2.7v2.13h11.2V2.7a1.3 1.3 0 0 0-1.3-1.3H2.7a1.3 1.3 0 0 0-1.3 1.3zm11.2 8.9V6.23H1.4v5.37a1 1 0 0 0 1 1h9.2a1 1 0 0 0 1-1zM3 2.11a1 1 0 1 1 0 2 1 1 0 0 1 0-2zm2.58 0a1 1 0 1 1 0 2 1 1 0 0 1 0-2zm2.59 0a1 1 0 1 1 0 2 1 1 0 0 1 0-2zM2.88 8.82a.7.7 0 0 1 0-1.4h8.24a.7.7 0 0 1 0 1.4H2.88zm0 2.59a.7.7 0 0 1 0-1.4h8.24a.7.7 0 0 1 0 1.4H2.88z" fill="currentColor" fill-rule="evenodd"/></svg>
